X: 3440
T: Gotlands bröllopsmarsch
R: marsch
O: Gotland
N: Arr. Elis Hansson. 
M: 4/4
L: 1/16
K: G

V: 1 
d2ef | g4 (d3d) d4 (BG)Bd | (d3c) c2c2 c4 A2c2 | (B2G2)B2d2 (e2d2)c2B2 | (B3A) ([DA]2[DA]2) [DA]4 d2ef | 
g4 (d3d) d4 (BG)Bd | (d3c) c2c2 c4 A2c2 | B2g2 (fe)dc B2AB c2F2 | (A3G) (G2G2) G4 :| 
|: G2AB | c4 (c3c) c4 (cB)AB | (B3d) (d2d2) d4 (de)fg | f4 (f3f) f2e2 d2ef | g4 g2fg b2a2 d2ef | 
| g4 (d3d) d4 (BG)Bd | (d3c) c2c2 c4 A2c2 | B2g2 (fe)dc B2AB c2F2 | (A3G) (G2G2) G4 :| 

(:musicend:)

(:music:)

